shader_type spatial;

uniform sampler2D tex;

void vertex() {

	// Billboard Mode: Enabled
	MODELVIEW_MATRIX = VIEW_MATRIX * mat4(
			MAIN_CAM_INV_VIEW_MATRIX[0],
			MAIN_CAM_INV_VIEW_MATRIX[1],
			MAIN_CAM_INV_VIEW_MATRIX[2],
			MODEL_MATRIX[3]);

	// Billboard Keep Scale: Enabled
	MODELVIEW_MATRIX = MODELVIEW_MATRIX * mat4(
			vec4(length(MODEL_MATRIX[0].xyz), 0.0, 0.0, 0.0),
			vec4(0.0, length(MODEL_MATRIX[1].xyz), 0.0, 0.0),
			vec4(0.0, 0.0, length(MODEL_MATRIX[2].xyz), 0.0),
			vec4(0.0, 0.0, 0.0, 1.0));
	MODELVIEW_NORMAL_MATRIX = mat3(MODELVIEW_MATRIX);
}

void fragment() {

	float albedo_tex = texture(tex, UV).r;

	ALBEDO = COLOR.rgb;
	ALPHA = albedo_tex * COLOR.a;
}

